assets/revenge-dark.svg

<svg width="320" height="320" viewBox="0 0 320 320" fill="none" xmlns="http://www.w3.org/2000/svg">
<path fill-rule="evenodd" clip-rule="evenodd" d="M9.26979 99H294.723L312.234 215.273C312.723 222.597 310.021 229.993 304.839 235.184L265.514 274.935C260.741 279.717 254.27 283.273 247.514 283.273H182.785C168.723 283.273 152.981 270.126 152.981 256.073V255.61C152.981 250.056 156.895 244.851 160.088 240.605L160.088 240.605L160.288 240.339L75.9944 236.224C73.9944 236.135 69.0077 236.055 62.9899 235.984C43.5233 235.762 27.1144 221.37 24.4033 202.09L8.74994 103.006C8.84706 101.648 9.02178 100.311 9.26979 99ZM84.5458 137.592L139.983 152.446C139.994 152.788 140 153.132 140 153.477C140 170.045 126.568 183.477 110 183.477C93.4314 183.477 79.9999 170.045 79.9999 153.477C79.9999 147.643 81.665 142.198 84.5458 137.592ZM180.019 152.4L235.429 137.553C238.325 142.168 240 147.627 240 153.477C240 170.045 226.568 183.477 210 183.477C193.431 183.477 180 170.045 180 153.477C180 153.116 180.006 152.757 180.019 152.4Z" fill="white"/>
<path fill-rule="evenodd" clip-rule="evenodd" d="M288.328 82.0258C288.569 83.4188 289.198 84.7073 290.018 85.8593C292.71 89.6425 294.372 94.0776 294.688 98.766L295.899 106.809C296.628 111.647 292.881 116 287.988 116H17.6382C13.7018 116 10.3504 113.136 9.73617 109.248L8.89299 103.911C8.79798 103.31 8.76815 102.697 8.82742 102.091C10.4271 85.7347 23.3039 72.6711 39.7278 70.9082L87.1856 63.328C89.9772 62.8821 92.7967 63.9426 94.6025 66.1175L105.915 79.7431C107.719 81.9152 110.533 82.9759 113.322 82.5343L203.656 68.2267C205.851 67.8792 207.802 66.6347 209.042 64.7913L222.878 44.2296C224.116 42.3892 226.063 41.1457 228.253 40.7958L247.639 37.6994C265.683 35.7705 282.181 48.0371 285.523 65.8683L288.328 82.0258Z" fill="white"/>
</svg>

<svg width="320" height="320" fill="none" xmlns="http://www.w3.org/2000/svg"><path fill-rule="evenodd" clip-rule="evenodd" d="M9.27 99h285.453l17.511 116.273c.489 7.324-2.213 14.72-7.395 19.911l-39.325 39.751c-4.773 4.782-11.244 8.338-18 8.338h-64.729c-14.062 0-29.804-13.147-29.804-27.2v-.463c0-5.554 3.914-10.759 7.107-15.005l.2-.266-84.294-4.115c-2-.089-6.986-.169-13.004-.24-19.467-.222-35.876-14.614-38.587-33.894L8.75 103.006c.097-1.358.272-2.695.52-4.006zm75.276 38.592l55.437 14.854c.011.342.017.686.017 1.031 0 16.568-13.432 30-30 30-16.569 0-30-13.432-30-30a29.858 29.858 0 014.546-15.885zm95.473 14.808l55.41-14.847A29.86 29.86 0 01240 153.477c0 16.568-13.432 30-30 30-16.569 0-30-13.432-30-30 0-.361.006-.72.019-1.077z" fill="#fff"/><path fill-rule="evenodd" clip-rule="evenodd" d="M288.328 82.026c.241 1.393.87 2.681 1.69 3.833 2.692 3.784 4.354 8.219 4.67 12.907l1.211 8.043c.729 4.838-3.018 9.191-7.911 9.191H17.638a8 8 0 01-7.902-6.752l-.843-5.337a7.191 7.191 0 01-.066-1.82c1.6-16.356 14.477-29.42 30.9-31.183l47.459-7.58a8 8 0 017.416 2.79l11.313 13.625a8 8 0 007.407 2.791l90.334-14.307a7.998 7.998 0 005.386-3.436l13.836-20.561a8 8 0 015.375-3.434l19.386-3.097c18.044-1.928 34.542 10.338 37.884 28.17l2.805 16.157z" fill="#fff"/></svg>
